deployments/warp_routes/PZETH/logo.svg

<svg width="92" height="92" viewBox="0 0 92 92" fill="none" xmlns="http://www.w3.org/2000/svg">
<rect x="0.65918" y="0.54541" width="90.5455" height="90.5455" rx="45.2727" fill="#C4FF61"/>
<path d="M45.8584 21.3934L34.4902 38.4353L35.8983 39.2918L45.8584 24.4722V21.3934Z" fill="black" fill-opacity="0.7"/>
<path d="M57.2266 38.4676L45.8584 21.3613V24.4401L55.9311 39.5366L57.2266 38.4676Z" fill="black" fill-opacity="0.7"/>
<path d="M45.8584 25.8089L37.9678 37.6343V40.7136L45.8584 28.8883V25.8089Z" fill="black" fill-opacity="0.7"/>
<path d="M53.749 37.6565L45.8584 25.7866V28.866L53.749 40.7359V37.6565Z" fill="black" fill-opacity="0.7"/>
<path d="M45.8584 42.054L53.749 37.6741V40.7489L45.8584 45.1288V42.054Z" fill="black" fill-opacity="0.7"/>
<path d="M37.9678 37.6519L45.8584 42.0762V45.1511L37.9678 40.7267V37.6519Z" fill="black" fill-opacity="0.7"/>
<path d="M45.8584 44.8062L57.2266 38.4964V41.5699L45.8584 47.8797V44.8062Z" fill="black" fill-opacity="0.7"/>
<path d="M34.4902 38.4644L45.8584 44.8382V47.9117L34.4902 41.5379V38.4644Z" fill="black" fill-opacity="0.7"/>
<path fill-rule="evenodd" clip-rule="evenodd" d="M45.8584 21.6888L57.2266 38.784L45.8584 45.1213L34.4902 38.7501L45.8584 21.6888ZM37.9678 37.9439L45.8584 26.1074L53.749 37.9674L45.8584 42.3645L37.9678 37.9439Z" fill="black"/>
<path d="M32.0488 43.3091L32.41 42.7686V45.8517L32.0488 46.3922V43.3091Z" fill="black" fill-opacity="0.7"/>
<path d="M59.1748 42.7676L59.5359 43.3101V46.3932L59.1748 45.8507V42.7676Z" fill="black" fill-opacity="0.7"/>
<path d="M32.4092 42.7676L45.7919 50.2043V53.2774L32.4092 45.8407V42.7676Z" fill="black"/>
<path d="M45.793 50.1671L59.1757 42.8047V45.8778L45.793 53.2402V50.1671Z" fill="black" fill-opacity="0.7"/>
<path d="M29.4854 51.6604C29.486 48.7776 30.3271 45.8796 32.0486 43.3162V46.3983C30.3271 48.9617 29.486 51.8597 29.4854 54.7425V51.6604Z" fill="black" fill-opacity="0.7"/>
<path d="M59.5361 43.3091C61.264 45.885 62.1075 48.7914 62.1069 51.6774V54.7533C62.1063 51.8693 61.2627 48.9652 59.5361 46.3911V43.3091Z" fill="black" fill-opacity="0.7"/>
<path d="M29.4854 51.6719C29.4854 51.6697 29.4854 51.6676 29.4854 51.6655V51.6719C29.4862 55.6796 31.1125 59.6573 34.2567 62.6643V65.7454C31.1109 62.7368 29.4845 58.7565 29.4854 54.7466V51.6719Z" fill="black"/>
<path d="M29.4854 51.6655C29.4854 51.6676 29.4854 51.6697 29.4854 51.6719V51.6655Z" fill="black"/>
<path d="M62.107 51.6886C62.1062 55.6951 60.4774 59.6623 57.3281 62.6509V65.732C60.4774 62.7434 62.1062 58.7762 62.107 54.7696V51.6886Z" fill="black"/>
<path d="M57.3283 62.7254C50.9517 68.7238 40.6232 68.6952 34.2568 62.6616V65.7198C40.6232 71.7534 50.9517 71.782 57.3283 65.7836V62.7254Z" fill="black"/>
<path d="M45.7925 50.2111L32.4097 42.7757L32.0486 43.3144C30.3271 45.8699 29.486 48.7589 29.4854 51.6328C29.4845 55.6316 31.1109 59.6009 34.2567 62.6012C40.623 68.6631 50.9516 68.6918 57.3282 62.6652C60.4775 59.6849 62.1063 55.7286 62.1071 51.7332C62.1077 48.8561 61.2641 45.9586 59.5363 43.3906L59.1752 42.85L45.7925 50.2111Z" fill="black"/>
<path d="M46.4182 55.7589C39.3914 50.9354 33.8944 50.9256 29.541 52.5884V55.6528C33.8944 53.99 39.3914 53.9999 46.4182 58.8233V55.7589Z" fill="black"/>
<path d="M60.532 58.3622C57.9475 60.3426 53.8507 60.8461 46.418 55.7393V58.8066C53.8507 63.9134 57.9475 63.4099 60.532 61.4295V58.3622Z" fill="black" fill-opacity="0.7"/>
<path d="M34.2804 62.6167C31.3901 59.8528 29.7825 56.2686 29.541 52.5947V55.6757C29.7825 59.3495 31.3901 62.9337 34.2804 65.6976V62.6167Z" fill="black"/>
<path d="M60.5328 58.3466C59.7522 59.8957 58.6894 61.3403 57.3525 62.6087V65.6891C58.6894 64.4207 59.7522 62.976 60.5328 61.4269V58.3466Z" fill="black"/>
<path d="M57.3518 62.6764C50.9751 68.676 40.6466 68.648 34.2803 62.6138V65.6724C40.6466 71.7066 50.9751 71.7347 57.3518 65.7351V62.6764Z" fill="black"/>
<path fill-rule="evenodd" clip-rule="evenodd" d="M60.5322 58.3856C57.9477 60.3661 53.8509 60.8695 46.4182 55.7628C39.3914 50.9348 33.8944 50.925 29.541 52.5893C29.7825 56.2469 31.3901 59.8152 34.2804 62.5669C40.6468 68.6181 50.9753 68.6462 57.3519 62.6297C58.6887 61.3667 59.7516 59.9282 60.5322 58.3856Z" fill="white" fill-opacity="0.2"/>
</svg>

<svg xmlns="http://www.w3.org/2000/svg" width="92" height="92" fill="none" viewBox="0 0 92 92"><rect width="90.546" height="90.546" x=".659" y=".545" fill="#C4FF61" rx="45.273"/><path fill="#000" fill-opacity=".7" d="M45.858 21.393 34.49 38.435l1.408.857 9.96-14.82z"/><path fill="#000" fill-opacity=".7" d="M57.227 38.468 45.858 21.36v3.08l10.073 15.096zM45.858 25.809l-7.89 11.825v3.08l7.89-11.826zm7.891 11.848-7.89-11.87v3.079l7.89 11.87z"/><path fill="#000" fill-opacity=".7" d="m45.858 42.054 7.891-4.38v3.075l-7.89 4.38zm-7.89-4.402 7.89 4.424v3.075l-7.89-4.424z"/><path fill="#000" fill-opacity=".7" d="m45.858 44.806 11.369-6.31v3.074l-11.369 6.31z"/><path fill="#000" fill-opacity=".7" d="m34.49 38.464 11.368 6.374v3.074L34.49 41.538z"/><path fill="#000" fill-rule="evenodd" d="m45.858 21.689 11.369 17.095-11.369 6.337-11.368-6.37zm-7.89 16.255 7.89-11.837 7.891 11.86-7.89 4.398z" clip-rule="evenodd"/><path fill="#000" fill-opacity=".7" d="m32.049 43.31.361-.541v3.083l-.361.54zm27.126-.542.36.542v3.083l-.36-.542z"/><path fill="#000" d="m32.41 42.768 13.382 7.436v3.073l-13.383-7.436z"/><path fill="#000" fill-opacity=".7" d="m45.793 50.167 13.383-7.362v3.073L45.793 53.24zM29.485 51.66c.001-2.882.842-5.78 2.564-8.344v3.082a14.93 14.93 0 0 0-2.564 8.344zm30.051-8.35c1.728 2.575 2.572 5.481 2.57 8.367v3.076c0-2.884-.843-5.788-2.57-8.362z"/><path fill="#000" d="M29.485 51.672v-.006zc.001 4.008 1.628 7.985 4.772 10.992v3.081c-3.146-3.008-4.772-6.989-4.772-10.998zm0-.006v.006zm32.622.023c0 4.006-1.63 7.973-4.779 10.962v3.081c3.15-2.989 4.778-6.956 4.779-10.962zm-4.779 11.036c-6.376 5.999-16.705 5.97-23.071-.063v3.058c6.366 6.033 16.695 6.062 23.071.064z"/><path fill="#000" d="M45.793 50.211 32.41 42.776l-.361.538a14.85 14.85 0 0 0-2.564 8.319c0 3.999 1.626 7.968 4.772 10.968 6.366 6.062 16.695 6.09 23.071.064 3.15-2.98 4.778-6.936 4.78-10.932 0-2.877-.844-5.774-2.572-8.342l-.36-.541z"/><path fill="#000" d="M46.418 55.759c-7.027-4.824-12.524-4.833-16.877-3.17v3.064c4.353-1.663 9.85-1.653 16.877 3.17z"/><path fill="#000" fill-opacity=".7" d="M60.532 58.362c-2.584 1.98-6.681 2.484-14.114-2.623v3.068c7.433 5.106 11.53 4.603 14.114 2.622z"/><path fill="#000" d="M34.28 62.617c-2.89-2.764-4.498-6.348-4.739-10.022v3.08c.241 3.675 1.85 7.259 4.74 10.023zm26.253-4.27a15.5 15.5 0 0 1-3.18 4.262v3.08a15.5 15.5 0 0 0 3.18-4.262z"/><path fill="#000" d="M57.352 62.676c-6.377 6-16.705 5.972-23.072-.062v3.058c6.367 6.035 16.695 6.063 23.072.063z"/><path fill="#fff" fill-opacity=".2" fill-rule="evenodd" d="M60.532 58.386c-2.584 1.98-6.681 2.483-14.114-2.623-7.027-4.828-12.524-4.838-16.877-3.174.241 3.658 1.85 7.226 4.74 9.978 6.366 6.051 16.694 6.08 23.07.063a15.4 15.4 0 0 0 3.181-4.244" clip-rule="evenodd"/></svg>
